icons/markup-line.svg

<svg viewBox="0 0 24 24" fill="currentColor" xmlns="http://www.w3.org/2000/svg">
    <path d="M10 10.4967L11.0385 6.86202C11.1902 6.33099 11.7437 6.0235 12.2747 6.17522C12.6069 6.27014 12.8666 6.52981 12.9615 6.86202L14 10.4967V11.9967H14.7192C15.1781 11.9967 15.5781 12.309 15.6894 12.7542L17.051 18.2008C18.8507 16.7339 20 14.4995 20 11.9967C20 7.57841 16.4183 3.99669 12 3.99669C7.58172 3.99669 4 7.57841 4 11.9967C4 14.4995 5.14932 16.7339 6.94897 18.2008L8.31063 12.7542C8.42193 12.309 8.82191 11.9967 9.28078 11.9967H10V10.4967ZM12 19.9967C12.2415 19.9967 12.4813 19.986 12.7189 19.9649C13.6187 19.8847 14.4756 19.6556 15.2649 19.3023L13.9384 13.9967H10.0616L8.73514 19.3023C9.52438 19.6556 10.3813 19.8847 11.2811 19.9648C11.5187 19.986 11.7585 19.9967 12 19.9967ZM12 21.9967C6.47715 21.9967 2 17.5195 2 11.9967C2 6.47384 6.47715 1.99669 12 1.99669C17.5228 1.99669 22 6.47384 22 11.9967C22 17.5195 17.5228 21.9967 12 21.9967Z"/>
</svg>

<svg xmlns="http://www.w3.org/2000/svg" viewBox="0 0 24 24">
    <g>
        <path fill="none" d="M0 0h24v24H0z"/>
        <path fill-rule="nonzero" d="M10 10.5l1.038-3.635a1 1 0 0 1 1.924 0L14 10.5V12h.72a1 1 0 0 1 .97.757l1.361 5.447a8 8 0 1 0-10.102 0l1.362-5.447A1 1 0 0 1 9.28 12H10v-1.5zm2 9.5a7.952 7.952 0 0 0 3.265-.694L13.938 14h-3.876l-1.327 5.306A7.95 7.95 0 0 0 12 20zm0 2C6.477 22 2 17.523 2 12S6.477 2 12 2s10 4.477 10 10-4.477 10-10 10z"/>
    </g>
</svg>
